Papirus/64x64/apps/gwenview.svg

<!-- Created with Inkscape (http://www.inkscape.org/) -->
<svg width="64" height="64" version="1.1" viewBox="0 0 64 64" xmlns="http://www.w3.org/2000/svg">
 <path d="m32 11c-15.46392 0-26.777732 12.054836-28 22 1.222268 9.945164 12.536076 22 28 22 15.46392 0 26.777726-12.054836 28-22-1.222274-9.945164-12.536078-22-28-22z" style="opacity:.2"/>
 <path d="M 32,10 C 16.53608,10 5.22227,22.054836 4,31.999998 5.22227,41.945162 16.536076,54 32,54 47.46392,54 58.777726,41.945162 60,31.999998 58.777726,22.054836 47.463922,10 32,10 Z" style="fill:#d35297"/>
 <circle cx="32" cy="32.999229" r="16" style="opacity:.1"/>
 <circle cx="32" cy="32" r="16" style="fill:#e4e4e4"/>
 <path d="m38 22c-2.209136 0-4 1.790864-4 4s1.790864 4 4 4 4-1.790864 4-4-1.790864-4-4-4zm-12 6-7.039062 9a14 14 0 0 0 13.039062 9 14 14 0 0 0 13.039062-9h-3.039062l-5-5-5 4z" style="opacity:.2"/>
 <path d="M 32,10 C 16.536112,10 5.2222648,22.054856 4,32 4.020194,32.1643 4.052248,32.330678 4.078126,32.496094 5.6115732,22.65225 16.795874,11 32,11 47.204128,11 58.388424,22.65225 59.921876,32.496094 59.947752,32.330678 59.979806,32.164306 60,32 58.77773,22.054856 47.46389,10 32,10 Z" style="fill:#ffffff;opacity:.1"/>
</svg>

<svg xmlns="http://www.w3.org/2000/svg" width="64" height="64" version="1.1">
 <path style="opacity:0.2" d="M 32,11 C 16.536,11 5.222,23.055 4,33 5.222,42.945 16.536,55 32,55 47.464,55 58.778,42.945 60,33 58.778,23.055 47.464,11 32,11 Z"/>
 <path style="fill:#d35297" d="M 32,10 C 16.536,10 5.222,22.055 4,32 5.222,41.945 16.536,54 32,54 47.464,54 58.778,41.945 60,32 58.778,22.055 47.464,10 32,10 Z"/>
 <circle style="opacity:0.1" cx="32" cy="33" r="16"/>
 <circle style="fill:#e4e4e4" cx="32" cy="32" r="16"/>
 <path style="fill:#b6b6b6" d="M 42,26 A 4,4 0 0 1 38,30 4,4 0 0 1 34,26 4,4 0 0 1 38,22 4,4 0 0 1 42,26 Z M 26,28 18.961,37 A 14,14 0 0 0 32,46 14,14 0 0 0 45.039,37 H 42 L 37,32 32,36 Z"/>
 <path style="fill:#ffffff;opacity:0.1" d="M 32 10 C 16.536 10 5.222 22.055 4 32 C 4.0204 32.166 4.0502 32.333 4.0762 32.5 C 5.6069 22.655 16.794 11 32 11 C 47.206 11 58.393 22.655 59.924 32.5 C 59.95 32.333 59.98 32.166 60 32 C 58.778 22.055 47.464 10 32 10 z"/>
</svg>
